X: 20
T:Mist on the Mountain
R:Jig
M:6/8
L:1/8
Q:3/8=120
K:Ador
G|EAA ABd|e2A AGE|~G3 GAB|dBA GED|
EAA ABd|e2A AGE|efg dBG|BAG A2:|
a|age a2b|age edB|AGE G2A|BAB GED|
age a2b|age edB|AGE G2A|BAG A3|
age a2b|age edB|AGE G2A|BAB GED|
EDE G2A|BAG ABd|efg dBG|BAG A2|]
